X:145
T: Die Linde im Thal
N: A0177
O: Europa, Mitteleuropa, Deutschland
N: 68 Lieder. Nuernberg bei Berg und Newber No. 25.
R: Romanze, Ballade, Lied
M: 4/2
L: 1/4
K: C
G,2C2C2 | C2D2B,2A,2 | G,4z2
C2 | B,2G,2A,2A,2 | G,4z2
G,2 | C2C2G3F | E4D4 | CDEDC2B,A, | B,8 | z2
G,2A,2B,2 | C3DE2D2 | C8 | z2

